include/LD/assets/icons/standard/insights.svg

<?xml version="1.0"?><svg xmlns="http://www.w3.org/2000/svg" width="100" height="100" viewBox="0 0 100 100"><path fill="#fff" d="m78.3 26.9h-47.3c-0.9 0-1.7 0.8-1.7 1.7v35.2c0 1.4-1.3 2.5-2.7 2.3-1.2-0.2-2-1.3-2-2.4v-25.2c0-0.7-0.5-1.2-1.2-1.2h-1.7c-0.9 0-1.7 0.8-1.7 1.7v29.4c0 2.5 2.1 4.6 4.6 4.6h50.8c2.5 0 4.6-2.1 4.6-4.6v-39.7c0-1-0.8-1.8-1.7-1.8z m-26 33.5c0 0.7-0.5 1.2-1.2 1.2h-13.8c-0.7 0-1.2-0.5-1.2-1.2v-2.3c0-0.7 0.5-1.2 1.2-1.2h13.8c0.7 0 1.2 0.5 1.2 1.2v2.3z m0-9.2c0 0.7-0.5 1.2-1.2 1.2h-13.8c-0.7 0-1.2-0.5-1.2-1.2v-2.3c0-0.7 0.5-1.2 1.2-1.2h13.8c0.7 0 1.2 0.5 1.2 1.2v2.3z m20.8 9.2c0 0.7-0.5 1.2-1.2 1.2h-13.8c-0.7 0-1.2-0.5-1.2-1.2v-2.3c0-0.7 0.5-1.2 1.2-1.2h13.8c0.7 0 1.2 0.5 1.2 1.2v2.3z m0-9.2c0 0.7-0.5 1.2-1.2 1.2h-13.8c-0.7 0-1.2-0.5-1.2-1.2v-2.3c0-0.7 0.5-1.2 1.2-1.2h13.8c0.7 0 1.2 0.5 1.2 1.2v2.3z m0-9.3c0 0.7-0.5 1.2-1.2 1.2h-34.6c-0.7 0-1.2-0.5-1.2-1.2v-6.9c0-0.7 0.5-1.2 1.2-1.2h34.6c0.7 0 1.2 0.5 1.2 1.2v6.9z"></path></svg>

<svg xmlns="http://www.w3.org/2000/svg" x="0px" y="0px"
	 width="100px" height="100px" viewBox="0 0 100 100" enable-background="new 0 0 100 100" xml:space="preserve">
<path fill="#FFFFFF" d="M78.3,26.9H31c-0.9,0-1.7,0.8-1.7,1.7v35.2c0,1.4-1.3,2.5-2.7,2.3c-1.2-0.2-2-1.3-2-2.4V38.5
	c0-0.7-0.5-1.2-1.2-1.2h-1.7c-0.9,0-1.7,0.8-1.7,1.7v29.4c0,2.5,2.1,4.6,4.6,4.6h4.6h46.2c2.5,0,4.6-2.1,4.6-4.6V28.7
	C80,27.7,79.2,26.9,78.3,26.9z M52.3,60.4c0,0.7-0.5,1.2-1.2,1.2H37.3c-0.7,0-1.2-0.5-1.2-1.2v-2.3c0-0.7,0.5-1.2,1.2-1.2h13.8
	c0.7,0,1.2,0.5,1.2,1.2V60.4z M52.3,51.2c0,0.7-0.5,1.2-1.2,1.2H37.3c-0.7,0-1.2-0.5-1.2-1.2v-2.3c0-0.7,0.5-1.2,1.2-1.2h13.8
	c0.7,0,1.2,0.5,1.2,1.2V51.2z M73.1,60.4c0,0.7-0.5,1.2-1.2,1.2H58.1c-0.7,0-1.2-0.5-1.2-1.2v-2.3c0-0.7,0.5-1.2,1.2-1.2h13.8
	c0.7,0,1.2,0.5,1.2,1.2V60.4z M73.1,51.2c0,0.7-0.5,1.2-1.2,1.2H58.1c-0.7,0-1.2-0.5-1.2-1.2v-2.3c0-0.7,0.5-1.2,1.2-1.2h13.8
	c0.7,0,1.2,0.5,1.2,1.2V51.2z M73.1,41.9c0,0.7-0.5,1.2-1.2,1.2H37.3c-0.7,0-1.2-0.5-1.2-1.2V35c0-0.7,0.5-1.2,1.2-1.2h34.6
	c0.7,0,1.2,0.5,1.2,1.2V41.9z"/>
</svg>
